X: 2
T: The Humours Of Castlefin
R: reel
M: 4/4
L: 1/8
K: Emin
|:A|BE E2 BAFB|ADFD EFAd|BE E2 B2 AF|GBAF E2 FA|BE E2 BE E2| ADFD EF A2| BE E2 B2 FA|GBAF E3A |||:B2 ed egfe|defg afed|B2 ed efgb|agfa ge e2|B2 ed egfe|defg afdf|efga bagf|egfd edBA|


Tune 2271	Setting 2271

